speaky-school/img/logo1.svg

<svg width="244" height="50" viewBox="0 0 244 50" fill="none" xmlns="http://www.w3.org/2000/svg">
<path d="M70.0045 23.9418C67.2964 23.3043 66.9207 22.4374 66.9207 21.6064C66.9207 20.2166 67.7856 19.5432 69.572 19.5432C70.8835 19.5432 72.039 19.8441 73.2158 20.4888L73.4994 20.6464L73.6766 20.3742C73.9885 19.9014 74.1728 19.3139 74.1728 18.791C74.1728 18.1032 73.8113 17.7021 73.0031 17.48C71.876 17.1433 70.8906 17 69.5933 17C65.5242 17 64.078 19.5074 64.078 21.85C64.078 24.2284 65.6518 25.7973 68.7497 26.5137C71.564 27.1871 72.1383 28.0826 72.1383 29.2217C72.1383 31.07 70.4723 31.464 69.0758 31.464C67.6863 31.464 66.3748 31.0771 64.9641 30.2533L64.6806 30.0885L64.4962 30.3607C64.1843 30.8192 64 31.4138 64 31.9511C64 32.646 64.3261 33.0472 65.1201 33.3409C66.2402 33.7708 67.5871 34 69.0191 34C72.6061 34 75.0164 31.9798 75.0164 28.9781C75.0093 26.3274 73.4639 24.7729 70.0045 23.9418Z" fill="#236967"/>
<path d="M82.9697 17H77.582V33.5702H80.361V28.2617H82.9697C86.7695 28.2617 88.9458 26.2128 88.9458 22.6452C88.9458 19.056 86.7695 17 82.9697 17ZM80.368 19.4357H82.9768C85.0965 19.4357 86.1315 20.4817 86.1315 22.6452C86.1315 24.7729 85.0681 25.8546 82.9768 25.8546H80.368V19.4357Z" fill="#236967"/>
<path d="M93.9586 26.1985H99.8V23.7627H93.9586V19.4357H101.275V17H91.1797V33.5702H101.409V31.1344H93.9586V26.1985Z" fill="#236967"/>
<path d="M110.626 17.1218L110.519 17H108.322L108.215 17.1218C105.358 20.453 103.331 26.6068 102.92 33.1833L102.898 33.563H105.77L105.784 33.2191C105.84 31.9654 105.961 30.7404 106.124 29.5727H112.703C112.859 30.6759 112.979 31.8723 113.071 33.2191L113.093 33.5558H115.935L115.914 33.1761C115.567 26.7859 113.49 20.4816 110.626 17.1218ZM112.277 27.1441H106.571C107.202 24.2069 108.159 21.7067 109.42 19.7008C110.711 21.7425 111.668 24.2427 112.277 27.1441Z" fill="#236967"/>
<path d="M125.135 24.6582C127.617 22.7956 129.368 20.1879 129.977 17.437L130.076 17H127.106L127.042 17.2794C126.312 20.4315 124.192 22.9604 121.336 24.1281V17H118.557V33.5702H121.336V26.6928C121.839 26.5209 122.321 26.3274 122.768 26.1125C125.178 27.6671 126.688 30.0742 127.255 33.2764L127.305 33.5702H130.282L130.218 33.1618C129.722 29.7661 127.794 26.5638 125.135 24.6582Z" fill="#236967"/>
<path d="M141.137 17L141.108 17.3224C140.775 20.9043 139.627 23.6839 137.691 25.6039C135.699 23.6911 134.522 20.9043 134.189 17.3224L134.161 17H131.297L131.332 17.394C131.715 21.5706 133.509 25.3603 136.273 27.8032V33.5702H139.031V27.8032C141.845 25.3102 143.646 21.5276 143.972 17.3869L144.001 17H141.137Z" fill="#236967"/>
<path d="M159.949 19.9375L160.204 20.1325L160.381 19.8655L160.61 19.5224L160.763 19.2923L160.546 19.1209C159.444 18.2495 157.795 17.7 156.202 17.7C154.471 17.7 153.194 18.1594 152.346 18.9111C151.496 19.665 151.108 20.686 151.108 21.7418C151.108 23.2179 151.732 24.1535 152.666 24.78C153.572 25.388 154.766 25.7015 155.896 25.9869C155.943 25.9988 155.989 26.0105 156.036 26.0223C157.141 26.3008 158.175 26.5616 158.951 27.0267C159.349 27.2649 159.665 27.5498 159.883 27.9067C160.1 28.262 160.231 28.7066 160.231 29.2827C160.231 30.1162 159.917 30.8565 159.255 31.3948C158.587 31.9383 157.535 32.2997 156.022 32.2997C154.092 32.2997 152.357 31.4552 151.517 30.4323L151.31 30.1798L151.076 30.4076L150.791 30.6854L150.598 30.8729L150.763 31.0848C151.797 32.4097 153.885 33.3 156.047 33.3C157.796 33.3 159.097 32.8522 159.966 32.111C160.839 31.3667 161.247 30.3508 161.247 29.2827L161.247 29.2818C161.245 28.5648 161.09 27.9691 160.811 27.472C160.532 26.9755 160.137 26.5934 159.677 26.2896C158.77 25.6901 157.576 25.3771 156.445 25.0888C156.412 25.0804 156.379 25.072 156.346 25.0636C155.226 24.7781 154.174 24.5103 153.389 24.0332C152.991 23.7917 152.674 23.5034 152.456 23.143C152.238 22.7842 152.107 22.3365 152.107 21.7582C152.107 20.915 152.423 20.163 153.074 19.6167C153.73 19.0663 154.757 18.7003 156.218 18.7003C157.448 18.7003 158.866 19.1078 159.949 19.9375Z" fill="#216D6B" stroke="#236967" stroke-width="0.6" stroke-miterlimit="10"/>
<path d="M176.137 20.3953L176.369 20.6239L176.578 20.3732L176.822 20.0791L176.994 19.8723L176.807 19.6788C175.508 18.3335 173.662 17.7 171.708 17.7C167.339 17.7 164.046 21.0501 164.046 25.5C164.046 29.9497 167.33 33.3 171.708 33.3C173.657 33.3 175.509 32.6403 176.807 31.2967L176.994 31.1032L176.822 30.8964L176.578 30.6023L176.369 30.3508L176.136 30.5809C174.89 31.8145 173.389 32.2997 171.716 32.2997C167.934 32.2997 165.07 29.3605 165.07 25.5082L165.07 25.5076C165.062 21.6392 167.926 18.7003 171.716 18.7003C173.399 18.7003 174.891 19.1705 176.137 20.3953Z" fill="#216D6B" stroke="#236967" stroke-width="0.6" stroke-miterlimit="10"/>
<path d="M192.034 18.0573V24.8733H182.182V18.0573V17.7573H181.882H181.475H181.175V18.0573V32.9266V33.2266H181.475H181.882H182.182V32.9266V25.8818H192.034V32.9266V33.2266H192.334H192.75H193.05V32.9266V18.0573V17.7573H192.75H192.334H192.034V18.0573Z" fill="#216D6B" stroke="#236967" stroke-width="0.6" stroke-miterlimit="10"/>
<path d="M205.071 17.7C200.702 17.7 197.409 21.0501 197.409 25.5C197.409 29.9497 200.693 33.3 205.071 33.3C209.449 33.3 212.733 29.9497 212.733 25.5C212.733 21.0419 209.449 17.7 205.071 17.7ZM205.071 32.2915C201.288 32.2915 198.425 29.392 198.425 25.5C198.425 21.608 201.288 18.7085 205.071 18.7085C208.855 18.7085 211.726 21.6084 211.726 25.5C211.726 29.3916 208.855 32.2915 205.071 32.2915Z" fill="#216D6B" stroke="#236967" stroke-width="0.6" stroke-miterlimit="10"/>
<path d="M223.237 17.7C218.868 17.7 215.575 21.0501 215.575 25.5C215.575 29.9497 218.859 33.3 223.237 33.3C227.615 33.3 230.899 29.9497 230.899 25.5C230.899 21.0419 227.615 17.7 223.237 17.7ZM223.237 32.2915C219.454 32.2915 216.591 29.392 216.591 25.5C216.591 21.608 219.454 18.7085 223.237 18.7085C227.021 18.7085 229.892 21.6084 229.892 25.4999C229.884 29.3922 227.02 32.2915 223.237 32.2915Z" fill="#216D6B" stroke="#236967" stroke-width="0.6" stroke-miterlimit="10"/>
<path d="M242.592 17.7573H242.292V18.0573V32.2263H234.039H233.739V32.5263V32.9266V33.2266H234.039H242.999H243.299V32.9266V18.0573V17.7573H242.999H242.592Z" fill="#216D6B" stroke="#236967" stroke-width="0.6" stroke-miterlimit="10"/>
<path d="M25 0C11.1947 0 0 11.1947 0 25C0 27.8692 0.488006 30.6209 1.37582 33.1844C1.9579 31.4675 2.92215 29.8565 4.28622 28.4866C5.54445 27.2284 8.34313 24.2004 9.9071 23.6065C11.571 21.0078 12.8704 19.9024 16.1042 16.6686C22.6305 10.1423 29.0922 6.02658 30.5444 7.47883C31.9967 8.93109 27.881 15.3928 21.3547 21.9191C19.9671 23.3067 18.5854 24.5767 17.2507 25.7114C18.8147 26.3053 20.2787 27.2225 21.5369 28.4807C22.7952 29.7389 23.7124 31.2088 24.3062 32.7728C25.441 31.4381 26.7168 30.0564 28.1044 28.6689C34.6308 22.1425 41.0983 18.0268 42.5447 19.4791C43.9969 20.9313 39.8812 27.393 33.3549 33.9193C30.1211 37.1531 29.0687 38.4995 26.464 40.1635C25.8702 41.7215 22.7893 44.4791 21.5369 45.7314C20.1787 47.0896 18.5736 48.048 16.8744 48.6301C19.4203 49.5061 22.1543 49.9882 24.9941 49.9882C38.8053 50 50 38.8053 50 25C50 11.1947 38.8053 0 25 0Z" fill="#236967"/>
<path d="M11.0362 35.2421C11.2597 35.2421 11.489 35.1539 11.6595 34.9834C12.0005 34.6424 12.0005 34.0838 11.6595 33.7369C11.3243 33.4018 10.7481 33.4018 10.413 33.7369C10.2484 33.9015 10.1543 34.125 10.1543 34.3602C10.1543 34.5953 10.2484 34.8188 10.413 34.9834C10.5835 35.1598 10.8069 35.2421 11.0362 35.2421Z" fill="#236967"/>
<path d="M16.304 38.3935C15.9747 38.0584 15.3927 38.0584 15.0575 38.3935C14.8929 38.5581 14.7988 38.7816 14.7988 39.0167C14.7988 39.2519 14.8929 39.4753 15.0575 39.64C15.2222 39.8046 15.4456 39.8987 15.6808 39.8987C15.9159 39.8987 16.1394 39.8046 16.304 39.64C16.4686 39.4753 16.5627 39.2519 16.5627 39.0167C16.5627 38.7816 16.4745 38.5581 16.304 38.3935Z" fill="#236967"/>
<path d="M8.60747 37.9173C7.95483 38.564 8.76622 40.2221 9.0308 40.716L9.07196 40.7924L9.14839 40.8336C9.40709 40.9688 10.4419 41.4979 11.2356 41.4979C11.5179 41.4979 11.7707 41.4333 11.9471 41.2569C12.5644 40.6395 12.3116 39.6459 11.265 38.5993C10.2185 37.5586 9.22482 37.3058 8.60747 37.9173Z" fill="#236967"/>
</svg>

<svg width="244" height="50" fill="none" xmlns="http://www.w3.org/2000/svg"><path d="M70.004 23.942c-2.708-.638-3.083-1.505-3.083-2.336 0-1.39.865-2.063 2.651-2.063 1.311 0 2.467.301 3.644.946l.283.157.178-.272c.311-.473.496-1.06.496-1.583 0-.688-.362-1.089-1.17-1.311-1.127-.337-2.112-.48-3.41-.48-4.069 0-5.515 2.507-5.515 4.85 0 2.378 1.574 3.947 4.672 4.664 2.814.673 3.388 1.569 3.388 2.708 0 1.848-1.666 2.242-3.062 2.242-1.39 0-2.701-.387-4.112-1.21l-.283-.166-.185.273A2.94 2.94 0 0 0 64 31.95c0 .695.326 1.096 1.12 1.39 1.12.43 2.467.659 3.9.659 3.586 0 5.996-2.02 5.996-5.022-.007-2.65-1.552-4.205-5.012-5.036zM82.97 17h-5.388v16.57h2.779v-5.308h2.609c3.8 0 5.976-2.05 5.976-5.617 0-3.589-2.177-5.645-5.976-5.645zm-2.602 2.436h2.609c2.12 0 3.154 1.046 3.154 3.21 0 2.127-1.063 3.209-3.154 3.209h-2.609v-6.42zM93.959 26.198H99.8v-2.435h-5.841v-4.327h7.316V17H91.18v16.57h10.229v-2.436h-7.45v-4.936zM110.626 17.122l-.107-.122h-2.197l-.107.122c-2.857 3.331-4.884 9.485-5.295 16.061l-.022.38h2.872l.014-.344a39.05 39.05 0 0 1 .34-3.646h6.579c.156 1.103.276 2.3.368 3.646l.022.337h2.842l-.021-.38c-.347-6.39-2.424-12.694-5.288-16.054zm1.651 10.022h-5.706c.631-2.937 1.588-5.437 2.849-7.443 1.291 2.041 2.248 4.542 2.857 7.443zM125.135 24.658c2.482-1.862 4.233-4.47 4.842-7.221l.099-.437h-2.97l-.064.28c-.73 3.151-2.85 5.68-5.706 6.848V17h-2.779v16.57h2.779v-6.877c.503-.172.985-.366 1.432-.58 2.41 1.554 3.92 3.961 4.487 7.163l.05.294h2.977l-.064-.408c-.496-3.396-2.424-6.598-5.083-8.504zM141.137 17l-.029.322c-.333 3.582-1.481 6.362-3.417 8.282-1.992-1.913-3.169-4.7-3.502-8.282l-.028-.322h-2.864l.035.394c.383 4.177 2.177 7.966 4.941 10.41v5.766h2.758v-5.767c2.814-2.493 4.615-6.275 4.941-10.416l.029-.387h-2.864z" fill="#236967"/><path d="M159.949 19.938l.255.195.177-.267.229-.344.153-.23-.217-.171c-1.102-.871-2.751-1.421-4.344-1.421-1.731 0-3.008.46-3.856 1.211-.85.754-1.238 1.775-1.238 2.83 0 1.477.624 2.413 1.558 3.039.906.608 2.1.921 3.23 1.207l.14.035c1.105.279 2.139.54 2.915 1.005.398.238.714.523.932.88.217.355.348.8.348 1.376 0 .833-.314 1.573-.976 2.112-.668.543-1.72.905-3.233.905-1.93 0-3.665-.845-4.505-1.868l-.207-.252-.234.228-.285.277-.193.188.165.212c1.034 1.325 3.122 2.215 5.284 2.215 1.749 0 3.05-.448 3.919-1.189.873-.744 1.281-1.76 1.281-2.828v-.001c-.002-.717-.157-1.313-.436-1.81-.279-.497-.674-.879-1.134-1.182-.907-.6-2.101-.913-3.232-1.201l-.099-.025c-1.12-.286-2.172-.554-2.957-1.03-.398-.242-.715-.53-.933-.891-.218-.359-.349-.806-.349-1.385 0-.843.316-1.595.967-2.141.656-.55 1.683-.917 3.144-.917 1.23 0 2.648.408 3.731 1.238zM176.137 20.395l.232.229.209-.25.244-.295.172-.207-.187-.193c-1.299-1.345-3.145-1.979-5.099-1.979-4.369 0-7.662 3.35-7.662 7.8 0 4.45 3.284 7.8 7.662 7.8 1.949 0 3.801-.66 5.099-2.003l.187-.194-.172-.207-.244-.294-.209-.251-.233.23c-1.246 1.233-2.747 1.719-4.42 1.719-3.782 0-6.646-2.94-6.646-6.792h0c-.008-3.869 2.856-6.808 6.646-6.808 1.683 0 3.175.47 4.421 1.695zM192.034 18.057v6.816h-9.852v-7.116h-1.007v15.47h1.007v-7.345h9.852v7.345h1.016v-15.47h-1.016v.3zM205.071 17.7c-4.369 0-7.662 3.35-7.662 7.8 0 4.45 3.284 7.8 7.662 7.8s7.662-3.35 7.662-7.8c0-4.458-3.284-7.8-7.662-7.8zm0 14.591c-3.783 0-6.646-2.899-6.646-6.791 0-3.892 2.863-6.791 6.646-6.791 3.784 0 6.655 2.9 6.655 6.791 0 3.892-2.871 6.791-6.655 6.791zM223.237 17.7c-4.369 0-7.662 3.35-7.662 7.8 0 4.45 3.284 7.8 7.662 7.8s7.662-3.35 7.662-7.8c0-4.458-3.284-7.8-7.662-7.8zm0 14.591c-3.783 0-6.646-2.899-6.646-6.791 0-3.892 2.863-6.791 6.646-6.791 3.784 0 6.655 2.9 6.655 6.79-.008 3.893-2.872 6.793-6.655 6.793zM242.592 17.757h-.3v14.47h-8.553v1H243.299v-15.47h-.707z" fill="#216D6B" stroke="#236967" stroke-width=".6" stroke-miterlimit="10"/><path d="M25 0C11.195 0 0 11.195 0 25c0 2.87.488 5.62 1.376 8.184a12.168 12.168 0 0 1 2.91-4.697c1.258-1.259 4.057-4.287 5.621-4.88 1.664-2.6 2.963-3.705 6.197-6.938 6.527-6.527 12.988-10.642 14.44-9.19 1.453 1.452-2.663 7.914-9.19 14.44a69.434 69.434 0 0 1-4.103 3.792 12.123 12.123 0 0 1 7.055 7.062 69.611 69.611 0 0 1 3.798-4.104c6.527-6.527 12.994-10.642 14.44-9.19 1.453 1.452-2.663 7.914-9.19 14.44-3.233 3.234-4.285 4.58-6.89 6.245-.594 1.557-3.675 4.315-4.927 5.567a12.127 12.127 0 0 1-4.663 2.9 24.925 24.925 0 0 0 8.12 1.357C38.805 50 50 38.805 50 25S38.805 0 25 0z" fill="#236967"/><path d="M11.036 35.242a.887.887 0 0 0 .623-.259.887.887 0 0 0 0-1.246.898.898 0 0 0-1.246 0 .881.881 0 0 0 .623 1.505zM16.304 38.394a.898.898 0 0 0-1.246 0 .881.881 0 1 0 1.505.623.857.857 0 0 0-.259-.623zM8.607 37.917c-.652.647.16 2.305.424 2.799l.041.076.076.042c.26.135 1.294.664 2.088.664.282 0 .535-.065.711-.241.617-.617.365-1.611-.682-2.658-1.046-1.04-2.04-1.293-2.658-.682z" fill="#236967"/></svg>
